covers/svg/cover-chartbrew.svg

<svg xmlns="http://www.w3.org/2000/svg" xml:space="preserve" style="fill-rule:evenodd;clip-rule:evenodd;stroke-linejoin:round;stroke-miterlimit:2" viewBox="0 0 1280 640"><path d="M0 0h1280v640H0z" style="fill:#edeff3;fill-rule:nonzero"/><path d="M1139.65 596h-9.85v-1.699l6.55-9.153h-6.15v-2.121h9.26v1.875l-6.42 8.977h6.61zm7.97-13.219c1.16 0 2.15.239 2.98.715.83.477 1.46 1.152 1.91 2.027.44.875.67 1.922.67 3.141v1.477h-8.66c.03 1.257.36 2.226 1 2.906.65.68 1.56 1.019 2.72 1.019.83 0 1.57-.078 2.23-.234.66-.164 1.35-.402 2.05-.715v2.238q-.975.458-1.98.668c-.67.141-1.48.211-2.42.211q-1.905 0-3.36-.738c-.96-.5-1.71-1.242-2.26-2.226q-.81-1.478-.81-3.668c0-1.454.25-2.688.74-3.704q.735-1.523 2.07-2.32t3.12-.797m0 2.074c-.87 0-1.57.282-2.11.844-.53.563-.84 1.387-.94 2.473h5.91q-.015-.973-.33-1.723c-.2-.5-.51-.89-.94-1.172q-.615-.422-1.59-.422m15.24-2.074c.21 0 .45.012.71.035s.48.055.67.094l-.26 2.578c-.2-.053-.4-.089-.61-.105a6 6 0 0 0-.63-.035q-.735 0-1.41.246c-.44.156-.84.398-1.18.726-.35.321-.61.723-.81 1.207s-.29 1.047-.29 1.688V596h-2.77v-12.973h2.16l.37 2.285h.13q.39-.69.96-1.265c.39-.383.82-.688 1.31-.914.52-.239 1.08-.36 1.65-.352m15.26 6.703q0 1.618-.42 2.871-.42 1.254-1.23 2.122a5.26 5.26 0 0 1-1.94 1.312c-.76.297-1.62.445-2.57.445-.89 0-1.71-.148-2.45-.445a5.5 5.5 0 0 1-1.93-1.312q-.81-.868-1.26-2.122c-.29-.835-.44-1.793-.44-2.871 0-1.429.24-2.64.74-3.632q.75-1.5 2.13-2.286c.92-.523 2.02-.785 3.29-.785 1.2 0 2.25.262 3.17.785.91.524 1.63 1.286 2.14 2.286.52 1 .77 2.21.77 3.632m-9.41 0c0 .946.12 1.754.34 2.426q.36 1.008 1.08 1.547c.49.352 1.11.527 1.88.527.76 0 1.39-.175 1.87-.527.49-.359.84-.875 1.07-1.547s.34-1.48.34-2.426c0-.945-.11-1.746-.34-2.402-.23-.664-.58-1.168-1.07-1.512-.48-.351-1.11-.527-1.88-.527-1.14 0-1.98.383-2.5 1.148-.52.766-.79 1.864-.79 3.293m19.24-6.703c1.53 0 2.77.563 3.7 1.688.94 1.125 1.4 2.797 1.4 5.015 0 1.469-.21 2.707-.65 3.715-.43 1-1.04 1.758-1.82 2.274q-1.155.76-2.7.761c-.66 0-1.23-.086-1.72-.257-.45-.155-.86-.38-1.24-.668a5 5 0 0 1-.87-.914h-.16c.04.312.07.66.11 1.043.04.374.05.718.05 1.031v5.285h-2.76v-18.727h2.25l.39 1.793h.12c.25-.367.54-.707.88-1.019.36-.313.78-.559 1.27-.739.5-.187 1.08-.281 1.75-.281m-.74 2.25q-1.14 0-1.83.457c-.45.297-.79.746-1 1.348q-.3.902-.33 2.262v.386q0 1.442.3 2.45.3.995.99 1.523c.47.344 1.11.516 1.9.516.67 0 1.23-.184 1.67-.551q.66-.551.99-1.57t.33-2.403q0-2.097-.75-3.258c-.49-.773-1.25-1.16-2.27-1.16m17.75 7.266c0 .851-.21 1.57-.62 2.156s-1.02 1.031-1.82 1.336c-.79.297-1.75.445-2.9.445-.91 0-1.69-.066-2.35-.199a8 8 0 0 1-1.84-.586v-2.379c.62.289 1.31.539 2.08.75q1.155.317 2.19.317c.91 0 1.56-.141 1.96-.422.39-.289.59-.672.59-1.149q0-.421-.24-.75c-.16-.226-.46-.457-.89-.691-.43-.242-1.07-.531-1.9-.867-.82-.328-1.51-.656-2.08-.985-.56-.328-.98-.722-1.27-1.183-.29-.469-.44-1.067-.44-1.793 0-1.149.46-2.02 1.36-2.613.92-.602 2.12-.903 3.62-.903q1.2 0 2.25.246c.72.157 1.41.387 2.09.692l-.87 2.074q-.87-.387-1.77-.633a6.3 6.3 0 0 0-1.79-.258c-.71 0-1.25.11-1.63.328-.37.219-.55.532-.55.938q0 .457.27.773.27.317.93.633c.44.211 1.06.473 1.85.785.77.297 1.44.61 2 .938.57.32 1.01.715 1.31 1.183.31.469.46 1.075.46 1.817m2.58 2.25c0-.641.16-1.09.49-1.348.34-.265.74-.398 1.22-.398s.88.133 1.22.398q.51.387.51 1.348 0 .938-.51 1.359c-.34.274-.74.41-1.22.41s-.88-.136-1.22-.41c-.33-.281-.49-.734-.49-1.359m9.74-11.52V596h-2.76v-12.973zm-1.36-4.968c.42 0 .78.113 1.09.339s.47.618.47 1.172c0 .547-.16.938-.47 1.172-.31.227-.67.34-1.09.34-.44 0-.81-.113-1.12-.34-.29-.234-.44-.625-.44-1.172 0-.554.15-.945.44-1.172.31-.226.68-.339 1.12-.339m16.79 11.425q0 1.618-.42 2.871-.42 1.254-1.23 2.122a5.4 5.4 0 0 1-1.95 1.312c-.75.297-1.61.445-2.56.445-.89 0-1.71-.148-2.45-.445a5.7 5.7 0 0 1-1.94-1.312c-.54-.579-.95-1.286-1.25-2.122q-.45-1.253-.45-2.871c0-1.429.25-2.64.74-3.632.5-1 1.21-1.762 2.14-2.286.92-.523 2.02-.785 3.29-.785 1.19 0 2.25.262 3.16.785.92.524 1.63 1.286 2.15 2.286.51 1 .77 2.21.77 3.632m-9.41 0c0 .946.11 1.754.34 2.426.24.672.59 1.188 1.08 1.547.48.352 1.11.527 1.87.527.77 0 1.39-.175 1.88-.527.48-.359.84-.875 1.07-1.547.22-.672.34-1.48.34-2.426 0-.945-.12-1.746-.34-2.402-.23-.664-.59-1.168-1.07-1.512-.49-.351-1.11-.527-1.89-.527q-1.71 0-2.49 1.148c-.53.766-.79 1.864-.79 3.293" style="fill:#1a1a1a;fill-rule:nonzero"/><path d="m337.596 179.457-96.358 36.828c-8.58 3.366-14.25 11.693-14.238 20.909v92.714l44.283-25.449v-52.131l74.217-28.475V178c-2.701.006-5.379.5-7.904 1.457m-65.528 207.628 73.432-42.322v-51.121l-113.455 65.415a10.23 10.23 0 0 0-5.045 8.745v34.249a22.4 22.4 0 0 0 3.952 12.522 22.4 22.4 0 0 0 10.286 8.162l96.358 36.828a22.4 22.4 0 0 0 7.904 1.458v-45.853z" style="fill:#323232;fill-rule:nonzero"/><path d="M459.291 279.066a9.38 9.38 0 0 0 4.708-8.24v-33.632c.013-9.217-5.658-17.544-14.238-20.909l-96.414-36.828A22.4 22.4 0 0 0 345.5 178v45.853l72.871 28.027-72.871 41.985v51.122zM353.347 459.563l96.414-36.828c8.506-3.334 14.161-11.548 14.238-20.684v-93.667l-44.283 25.561v52.859L345.5 415.168v45.853a22.4 22.4 0 0 0 7.847-1.458" style="fill:#1a1a1a;fill-rule:nonzero"/><path d="m670 295.553-6.043-6.043L640 313.467l-23.957-23.957-6.043 6.043 23.957 23.957L610 343.467l6.043 6.043L640 325.553l23.957 23.957 6.043-6.043-23.957-23.957z" style="fill:#939393;fill-rule:nonzero"/><path d="M374.039 67.817h-23.194c-16.387 0-29.623 13.362-29.623 29.749v203.96l82.568 17.396V97.566c0-16.387-13.364-29.749-29.751-29.749" style="fill-rule:nonzero" transform="translate(809.908 158.827)scale(.52985)"/><path d="M489.382-.003h-23.195c-16.387 0-29.624 13.362-29.624 29.749v296.108l82.568 17.396V29.746c0-16.387-13.361-29.749-29.749-29.749" style="fill:#200;fill-rule:nonzero" transform="translate(809.908 158.827)scale(.52985)"/><path d="M258.697 151.896h-23.069c-16.514 0-29.748 13.363-29.748 29.75v95.552l82.566 17.396V181.646c0-16.387-13.361-29.75-29.749-29.75M116.047 367.626c-.03.088-.03.148-.059.236-3.635 17.405-18.972 29.314-36.112 29.314-2.511 0-5.023-.296-7.623-.738-19.918-4.286-32.654-23.819-28.458-43.735 3.605-17.405 18.972-29.315 36.081-29.315 2.513 0 5.024.178 7.625.739 12.588 2.66 22.34 11.496 26.714 22.665a36.53 36.53 0 0 1 1.832 20.834m442.485 11.944c-32.524-6.866-74.999-15.823-121.712-25.686-.029 0-.119 0-.177-.029-.828-.177-3.606-.768-8.098-1.715-.945-.206-1.89-.384-2.866-.59-.946-.207-1.891-.414-2.866-.62-8.364-1.744-20.065-4.226-34.132-7.182-1.181-.265-2.364-.502-3.545-.768-11.555-2.422-24.557-5.17-38.476-8.097-1.655-.355-3.28-.708-4.935-1.033-2.836-.622-5.704-1.212-8.598-1.834-2.218-.472-4.434-.945-6.679-1.388a16343 16343 0 0 0-51.005-10.757c-2.511-.531-4.994-1.063-7.476-1.595a3395 3395 0 0 0-16.696-3.517c-7.24-1.536-14.45-3.073-21.572-4.551-1.684-.354-3.339-.709-4.995-1.064a598 598 0 0 1-7.683-1.625c-5.318-1.123-10.549-2.216-15.661-3.309-5.911-1.212-11.732-2.452-17.465-3.664-21.128-4.463-40.011-8.452-54.787-11.555-1.596-.355-3.191-.68-4.757-1.004-5.556-1.183-10.432-2.217-14.48-3.073-.355-.06-.71-.148-1.035-.207a2841 2841 0 0 1-12.5-2.631c-5.555-1.122-11.051-1.684-16.548-1.684-36.939 0-70.153 25.798-78.044 63.387-9.131 43.143 18.499 85.579 61.673 94.62a78.7 78.7 0 0 0 16.459 1.744c10.343 0 20.391-2.039 29.699-5.763l13.889-3.397c9.22 39.065 28.516 74.911 55.615 104.077 31.205 33.451 72.576 58.096 120.744 68.291a230 230 0 0 0 47.784 5.024c106.382 0 202.097-74.32 224.85-182.741l3.93-18.607c2.644-12.524-5.331-24.813-17.855-27.457" style="fill-rule:nonzero" transform="translate(809.908 158.827)scale(.52985)"/></svg>

<?xml version="1.0" encoding="UTF-8" standalone="no"?>
<!DOCTYPE svg PUBLIC "-//W3C//DTD SVG 1.1//EN" "http://www.w3.org/Graphics/SVG/1.1/DTD/svg11.dtd">
<svg width="100%" height="100%" viewBox="0 0 1280 640" version="1.1" xmlns="http://www.w3.org/2000/svg" xmlns:xlink="http://www.w3.org/1999/xlink" xml:space="preserve" xmlns:serif="http://www.serif.com/" style="fill-rule:evenodd;clip-rule:evenodd;stroke-linejoin:round;stroke-miterlimit:2;">
    <rect x="0" y="0" width="1280" height="640" style="fill:rgb(237,239,243);fill-rule:nonzero;"/>
    <path d="M1139.65,596L1129.8,596L1129.8,594.301L1136.35,585.148L1130.2,585.148L1130.2,583.027L1139.46,583.027L1139.46,584.902L1133.04,593.879L1139.65,593.879L1139.65,596ZM1147.62,582.781C1148.78,582.781 1149.77,583.02 1150.6,583.496C1151.43,583.973 1152.06,584.648 1152.51,585.523C1152.95,586.398 1153.18,587.445 1153.18,588.664L1153.18,590.141L1144.52,590.141C1144.55,591.398 1144.88,592.367 1145.52,593.047C1146.17,593.727 1147.08,594.066 1148.24,594.066C1149.07,594.066 1149.81,593.988 1150.47,593.832C1151.13,593.668 1151.82,593.43 1152.52,593.117L1152.52,595.355C1151.87,595.66 1151.21,595.883 1150.54,596.023C1149.87,596.164 1149.06,596.234 1148.12,596.234C1146.85,596.234 1145.73,595.988 1144.76,595.496C1143.8,594.996 1143.05,594.254 1142.5,593.27C1141.96,592.285 1141.69,591.062 1141.69,589.602C1141.69,588.148 1141.94,586.914 1142.43,585.898C1142.92,584.883 1143.61,584.109 1144.5,583.578C1145.39,583.047 1146.43,582.781 1147.62,582.781M1147.62,584.855C1146.75,584.855 1146.05,585.137 1145.51,585.699C1144.98,586.262 1144.67,587.086 1144.57,588.172L1150.48,588.172C1150.47,587.523 1150.36,586.949 1150.15,586.449C1149.95,585.949 1149.64,585.559 1149.21,585.277C1148.8,584.996 1148.27,584.855 1147.62,584.855M1162.86,582.781C1163.07,582.781 1163.31,582.793 1163.57,582.816C1163.83,582.839 1164.05,582.871 1164.24,582.91L1163.98,585.488C1163.78,585.435 1163.58,585.399 1163.37,585.383C1163.16,585.36 1162.95,585.349 1162.74,585.348C1162.25,585.348 1161.78,585.43 1161.33,585.594C1160.89,585.75 1160.49,585.992 1160.15,586.32C1159.8,586.641 1159.54,587.043 1159.34,587.527C1159.14,588.011 1159.05,588.574 1159.05,589.215L1159.05,596L1156.28,596L1156.28,583.027L1158.44,583.027L1158.81,585.312L1158.94,585.312C1159.2,584.852 1159.52,584.43 1159.9,584.047C1160.29,583.664 1160.72,583.359 1161.21,583.133C1161.73,582.894 1162.29,582.773 1162.86,582.781M1178.12,589.484C1178.12,590.563 1177.98,591.52 1177.7,592.355C1177.42,593.191 1177.01,593.898 1176.47,594.477C1175.93,595.054 1175.27,595.502 1174.53,595.789C1173.77,596.086 1172.91,596.234 1171.96,596.234C1171.07,596.234 1170.25,596.086 1169.51,595.789C1168.78,595.495 1168.12,595.047 1167.58,594.477C1167.04,593.898 1166.62,593.191 1166.32,592.355C1166.03,591.52 1165.88,590.562 1165.88,589.484C1165.88,588.055 1166.12,586.844 1166.62,585.852C1167.12,584.852 1167.83,584.09 1168.75,583.566C1169.67,583.043 1170.77,582.781 1172.04,582.781C1173.24,582.781 1174.29,583.043 1175.21,583.566C1176.12,584.09 1176.84,584.852 1177.35,585.852C1177.87,586.852 1178.12,588.062 1178.12,589.484M1168.71,589.484C1168.71,590.43 1168.83,591.238 1169.05,591.91C1169.29,592.582 1169.65,593.098 1170.13,593.457C1170.62,593.809 1171.24,593.984 1172.01,593.984C1172.77,593.984 1173.4,593.809 1173.88,593.457C1174.37,593.098 1174.72,592.582 1174.95,591.91C1175.18,591.238 1175.29,590.43 1175.29,589.484C1175.29,588.539 1175.18,587.738 1174.95,587.082C1174.72,586.418 1174.37,585.914 1173.88,585.57C1173.4,585.219 1172.77,585.043 1172,585.043C1170.86,585.043 1170.02,585.426 1169.5,586.191C1168.98,586.957 1168.71,588.055 1168.71,589.484M1187.95,582.781C1189.48,582.781 1190.72,583.344 1191.65,584.469C1192.59,585.594 1193.05,587.266 1193.05,589.484C1193.05,590.953 1192.84,592.191 1192.4,593.199C1191.97,594.199 1191.36,594.957 1190.58,595.473C1189.81,595.98 1188.91,596.233 1187.88,596.234C1187.22,596.234 1186.65,596.148 1186.16,595.977C1185.71,595.822 1185.3,595.597 1184.92,595.309C1184.59,595.042 1184.3,594.735 1184.05,594.395L1183.89,594.395C1183.93,594.707 1183.96,595.055 1184,595.438C1184.04,595.812 1184.05,596.156 1184.05,596.469L1184.05,601.754L1181.29,601.754L1181.29,583.027L1183.54,583.027L1183.93,584.82L1184.05,584.82C1184.3,584.453 1184.59,584.113 1184.93,583.801C1185.29,583.488 1185.71,583.242 1186.2,583.062C1186.7,582.875 1187.28,582.781 1187.95,582.781M1187.21,585.031C1186.45,585.031 1185.84,585.183 1185.38,585.488C1184.93,585.785 1184.59,586.234 1184.38,586.836C1184.18,587.437 1184.07,588.191 1184.05,589.098L1184.05,589.484C1184.05,590.445 1184.15,591.262 1184.35,591.934C1184.55,592.597 1184.88,593.105 1185.34,593.457C1185.81,593.801 1186.45,593.973 1187.24,593.973C1187.91,593.973 1188.47,593.789 1188.91,593.422C1189.35,593.055 1189.68,592.531 1189.9,591.852C1190.12,591.173 1190.23,590.372 1190.23,589.449C1190.23,588.051 1189.98,586.965 1189.48,586.191C1188.99,585.418 1188.23,585.031 1187.21,585.031M1204.96,592.297C1204.96,593.148 1204.75,593.867 1204.34,594.453C1203.93,595.039 1203.32,595.484 1202.52,595.789C1201.73,596.086 1200.77,596.234 1199.62,596.234C1198.71,596.234 1197.93,596.168 1197.27,596.035C1196.63,595.915 1196.02,595.718 1195.43,595.449L1195.43,593.07C1196.05,593.359 1196.74,593.609 1197.51,593.82C1198.28,594.031 1199.01,594.137 1199.7,594.137C1200.61,594.137 1201.26,593.996 1201.66,593.715C1202.05,593.426 1202.25,593.043 1202.25,592.566C1202.25,592.285 1202.17,592.035 1202.01,591.816C1201.85,591.59 1201.55,591.359 1201.12,591.125C1200.69,590.883 1200.05,590.594 1199.22,590.258C1198.4,589.93 1197.71,589.602 1197.14,589.273C1196.58,588.945 1196.16,588.551 1195.87,588.09C1195.58,587.621 1195.43,587.023 1195.43,586.297C1195.43,585.148 1195.89,584.277 1196.79,583.684C1197.71,583.082 1198.91,582.781 1200.41,582.781C1201.21,582.781 1201.96,582.863 1202.66,583.027C1203.38,583.184 1204.07,583.414 1204.75,583.719L1203.88,585.793C1203.3,585.535 1202.71,585.324 1202.11,585.16C1201.53,584.988 1200.93,584.901 1200.32,584.902C1199.61,584.902 1199.07,585.012 1198.69,585.23C1198.32,585.449 1198.14,585.762 1198.14,586.168C1198.14,586.473 1198.23,586.73 1198.41,586.941C1198.59,587.152 1198.9,587.363 1199.34,587.574C1199.78,587.785 1200.4,588.047 1201.19,588.359C1201.96,588.656 1202.63,588.969 1203.19,589.297C1203.76,589.617 1204.2,590.012 1204.5,590.48C1204.81,590.949 1204.96,591.555 1204.96,592.297M1207.54,594.547C1207.54,593.906 1207.7,593.457 1208.03,593.199C1208.37,592.934 1208.77,592.801 1209.25,592.801C1209.73,592.801 1210.13,592.934 1210.47,593.199C1210.81,593.457 1210.98,593.906 1210.98,594.547C1210.98,595.172 1210.81,595.625 1210.47,595.906C1210.13,596.18 1209.73,596.316 1209.25,596.316C1208.77,596.316 1208.37,596.18 1208.03,595.906C1207.7,595.625 1207.54,595.172 1207.54,594.547M1217.28,583.027L1217.28,596L1214.52,596L1214.52,583.027L1217.28,583.027ZM1215.92,578.059C1216.34,578.059 1216.7,578.172 1217.01,578.398C1217.32,578.624 1217.48,579.016 1217.48,579.57C1217.48,580.117 1217.32,580.508 1217.01,580.742C1216.7,580.969 1216.34,581.082 1215.92,581.082C1215.48,581.082 1215.11,580.969 1214.8,580.742C1214.51,580.508 1214.36,580.117 1214.36,579.57C1214.36,579.016 1214.51,578.625 1214.8,578.398C1215.11,578.172 1215.48,578.059 1215.92,578.059M1232.71,589.484C1232.71,590.563 1232.57,591.52 1232.29,592.355C1232.01,593.191 1231.6,593.898 1231.06,594.477C1230.51,595.052 1229.85,595.5 1229.11,595.789C1228.36,596.086 1227.5,596.234 1226.55,596.234C1225.66,596.234 1224.84,596.086 1224.1,595.789C1223.37,595.491 1222.71,595.044 1222.16,594.477C1221.62,593.898 1221.21,593.191 1220.91,592.355C1220.61,591.52 1220.46,590.563 1220.46,589.484C1220.46,588.055 1220.71,586.844 1221.2,585.852C1221.7,584.852 1222.41,584.09 1223.34,583.566C1224.26,583.043 1225.36,582.781 1226.63,582.781C1227.82,582.781 1228.88,583.043 1229.79,583.566C1230.71,584.09 1231.42,584.852 1231.94,585.852C1232.45,586.852 1232.71,588.062 1232.71,589.484M1223.3,589.484C1223.3,590.43 1223.41,591.238 1223.64,591.91C1223.88,592.582 1224.23,593.098 1224.72,593.457C1225.2,593.809 1225.83,593.984 1226.59,593.984C1227.36,593.984 1227.98,593.809 1228.47,593.457C1228.95,593.098 1229.31,592.582 1229.54,591.91C1229.76,591.238 1229.88,590.43 1229.88,589.484C1229.88,588.539 1229.76,587.738 1229.54,587.082C1229.31,586.418 1228.95,585.914 1228.47,585.57C1227.98,585.219 1227.36,585.043 1226.58,585.043C1225.44,585.043 1224.61,585.426 1224.09,586.191C1223.56,586.957 1223.3,588.055 1223.3,589.484" style="fill:rgb(26,26,26);fill-rule:nonzero;"/>
    <path d="M337.596,179.457L241.238,216.285C232.658,219.651 226.988,227.978 227,237.194L227,329.908L271.283,304.459L271.283,252.328L345.5,223.853L345.5,178C342.799,178.006 340.121,178.5 337.596,179.457M272.068,387.085L345.5,344.763L345.5,293.642L232.045,359.057C228.944,360.878 227.024,364.206 227,367.802L227,402.051C227.037,406.526 228.414,410.888 230.952,414.573C233.488,418.26 237.072,421.103 241.238,422.735L337.596,459.563C340.121,460.522 342.799,461.016 345.5,461.021L345.5,415.168L272.068,387.085Z" style="fill:rgb(50,50,50);fill-rule:nonzero;"/>
    <path d="M459.291,279.066C462.234,277.378 464.039,274.219 463.999,270.826L463.999,237.194C464.012,227.977 458.341,219.65 449.761,216.285L353.347,179.457C350.84,178.506 348.182,178.012 345.5,178L345.5,223.853L418.371,251.88L345.5,293.865L345.5,344.987L459.291,279.066ZM353.347,459.563L449.761,422.735C458.267,419.401 463.922,411.187 463.999,402.051L463.999,308.384L419.716,333.945L419.716,386.804L345.5,415.168L345.5,461.021C348.182,461.009 350.84,460.515 353.347,459.563" style="fill:rgb(26,26,26);fill-rule:nonzero;"/>
    <path d="M670,295.553L663.957,289.51L640,313.467L616.043,289.51L610,295.553L633.957,319.51L610,343.467L616.043,349.51L640,325.553L663.957,349.51L670,343.467L646.043,319.51L670,295.553Z" style="fill:rgb(147,147,147);fill-rule:nonzero;"/>
    <g transform="matrix(1,0,0,1,-6.88172,-14.1093)">
        <g transform="matrix(0.529852,0,0,0.529852,816.79,172.936)">
            <path d="M374.039,67.817L350.845,67.817C334.458,67.817 321.222,81.179 321.222,97.566L321.222,301.526L403.79,318.922L403.79,97.566C403.79,81.179 390.426,67.817 374.039,67.817Z" style="fill-rule:nonzero;"/>
        </g>
        <g transform="matrix(0.529852,0,0,0.529852,816.79,172.936)">
            <path d="M489.382,-0.003L466.187,-0.003C449.8,-0.003 436.563,13.359 436.563,29.746L436.563,325.854L519.131,343.25L519.131,29.746C519.131,13.359 505.77,-0.003 489.382,-0.003Z" style="fill:rgb(34,0,0);fill-rule:nonzero;"/>
        </g>
        <g transform="matrix(0.529852,0,0,0.529852,816.79,172.936)">
            <path d="M258.697,151.896L235.628,151.896C219.114,151.896 205.88,165.259 205.88,181.646L205.88,277.198L288.446,294.594L288.446,181.646C288.446,165.259 275.085,151.896 258.697,151.896Z" style="fill-rule:nonzero;"/>
        </g>
        <g transform="matrix(0.529852,0,0,0.529852,816.79,172.936)">
            <path d="M116.047,367.626C116.017,367.714 116.017,367.774 115.988,367.862C112.353,385.267 97.016,397.176 79.876,397.176C77.365,397.176 74.853,396.88 72.253,396.438C52.335,392.152 39.599,372.619 43.795,352.703C47.4,335.298 62.767,323.388 79.876,323.388C82.389,323.388 84.9,323.566 87.501,324.127C100.089,326.787 109.841,335.623 114.215,346.792C116.756,353.204 117.524,360.386 116.047,367.626ZM558.532,379.57C526.008,372.704 483.533,363.747 436.82,353.884C436.791,353.884 436.701,353.884 436.643,353.855C435.815,353.678 433.037,353.087 428.545,352.14C427.6,351.934 426.655,351.756 425.679,351.55C424.733,351.343 423.788,351.136 422.813,350.93C414.449,349.186 402.748,346.704 388.681,343.748C387.5,343.483 386.317,343.246 385.136,342.98C373.581,340.558 360.579,337.81 346.66,334.883C345.005,334.528 343.38,334.175 341.725,333.85C338.889,333.228 336.021,332.638 333.127,332.016C330.909,331.544 328.693,331.071 326.448,330.628C310.047,327.142 292.819,323.506 275.443,319.871C272.932,319.34 270.449,318.808 267.967,318.276C262.412,317.094 256.827,315.912 251.271,314.759C244.031,313.223 236.821,311.686 229.699,310.208C228.015,309.854 226.36,309.499 224.704,309.144C222.133,308.612 219.563,308.08 217.021,307.519C211.703,306.396 206.472,305.303 201.36,304.21C195.449,302.998 189.628,301.758 183.895,300.546C162.767,296.083 143.884,292.094 129.108,288.991C127.512,288.636 125.917,288.311 124.351,287.987C118.795,286.804 113.919,285.77 109.871,284.914C109.516,284.854 109.161,284.766 108.836,284.707C101.212,283.111 96.72,282.164 96.336,282.076C90.781,280.954 85.285,280.392 79.788,280.392C42.849,280.392 9.635,306.19 1.744,343.779C-7.387,386.922 20.243,429.358 63.417,438.399C68.913,439.582 74.499,440.143 79.876,440.143C90.219,440.143 100.267,438.104 109.575,434.38L123.464,430.983C132.684,470.048 151.98,505.894 179.079,535.06C210.284,568.511 251.655,593.156 299.823,603.351C315.78,606.75 331.885,608.375 347.607,608.375C453.989,608.375 549.704,534.055 572.457,425.634L576.387,407.027C579.031,394.503 571.056,382.214 558.532,379.57" style="fill-rule:nonzero;"/>
        </g>
    </g>
</svg>
